X:1
T:Title
%%score 1 2
L:1/8
M:3/2
K:C
V:1 treble nm="Part_1"
V:2 treble-8 nm="Part_2"
V:1
 F4 F4 E4 | F2 G2 A4 G4- | G2 F2 F4 E4 | F8 z4 | E8 F2 G2 | A4 _B4 G2 F2 | A4 A4 A2 G2 | %7
 A4 _B6 A2 | A6 G2 G4 | F2 G2 A2 G2 _B4 | A2 G3 F F2 E2 D2 | F8 z4 | F8 A4 | A4 G4 A2 F2 | A8 G4 | %15
 F6 G2 A4 | A4 G6 F2 | F4 E4 F2 D2 | F4 z4 F2 G2 | A6 F2 A4 | G2 F3 E E2 D2 C2 | E8 z4 | E8 F4 | %23
 A4 G2 A2 _B4 | A2 G4 F4 E2 | F4 z4 G2 A2 | _B4 B6 A2 | A4 _B4 A2 G2 | F6 G2 A4 | A4 G6 F2 | %30
 A4 G2 F4 E2 | F12 || E4 F4 G4 | A4 A4 A2 A2 | A4 _B4 B4- | B2 A2 A2 A4 G2 | A4 z4 A2 G2 | %37
 F4 G4 A4- | A2 G2 F4 G2 A2 | _B4 A2 A4 G2 | F4 A4 G4- | G2 F2 E4 F2 G2 | A4 G2 F4 E2 | F12 || %44
 F4 D4 E4 | F4 F4 F2 F2 | F6 F2 F4 | F4 E4 F2 E2 | G8 G4 | G4 F2 F4 E2 | F8 z4 | D8 E4 | F6 F2 F4 | %53
 F2 G2 F4 D4 | F6 E2 E4- | E2 D2 C4 D2 E2 | F4 E2 D4 C2 | D12 |] %58
V:2
 F4 A4 G4 | F4 c4 _B4 | G2 A4 F2 G4 | F12 | G8 A2 B2 | c4 d4 _B4 | A8 A4 | c4 d8 | c8 _B4 | %9
 A4 c4 _B4 | c4 _B2 A4 G2 | F12 | A8 c4- | c4 _B8 | A8 _B4 | F8 c4- | c4 _B8 | A4 G8 | F4 A6 B2 | %19
 c4 A8 | _B2 A2 G4 F4 | E12 | G8 F4 | c4 _B2 c2 d4 | c2 _B2 A2 F2 G4 | F4 _B4 c4 | _B4 d8 | %27
 c4 d4 _B4 | A8 c4- | c4 _B8 | c4 _B2 A2 G4 | F12 || E4 A4 _B4 | A8 c4- | c4 _B8 | d2 c4 A2 _B4 | %36
 A8 c2 _B2 | A4 _B4 c4- | c4 A4 _B2 c2 | d4 c4 _B4 | A8 _B4- | B4 G4 F4 | c4 _B2 A2 G4 | F12 || %44
 A4 F4 G4 | F12 | A8 A4 | F4 G4 A4 | G8 _B4- | B4 A4 G4 | F12- | F8 G4 | A8 A4 | A2 _B2 A4 D4 | %54
 A8 G4- | G4 E4 D4 | A4 G2 F2 E4 | D12 |] %58

